X: 1
T: the Red-Haired Boy
T: the Little Beggar Man
R: reel
O: Scotland 1762
S: Concord Slow Scottish Jam collection, transcription by Barbara McOwen
Z: 2016 John Chambers <jc:trillian.mit.edu>
B: McGibbon, Scots Tunes, book III, 1762; p.70
B: James Gillespie Manuscript of Perth, 1768
B: c.1776-1778 music copybook of fifer Thomas Nixon Jr. [1] (1762-1842), of Framingham, Connecticut
M: C|
L: 1/8
K: AMix
E2 |\
"A"E2A2 ABcd | efec "D"d2cd | "A"e2A2 ABcA | "G"BAEF G2E2 |
"A"E2A2 ABcd | efec "D"d2cd | "A"e2a2 "G"afed | "A"c2A2 A2 :|
|: ef |\
"G"gfga g2ef | gfec "D"d2cd | "A"e2A2 ABcA | "G"BAEF G2E2 |
"A"E2A2 ABcd | efec "D"d2cd | "A"e2a2 "G"afed | "A"c2A2 A2 :|
